website/public/Images/logos/youtube_blue.svg

<svg width="20" height="14" viewBox="0 0 20 14" fill="none" xmlns="http://www.w3.org/2000/svg">
<path d="M19.5826 2.18694C19.4687 1.76346 19.2455 1.37727 18.9353 1.06702C18.625 0.756774 18.2386 0.533349 17.8147 0.419108C16.2545 8.5041e-08 10 0 10 0C10 0 3.74554 -8.5041e-08 2.18527 0.416879C1.76121 0.530749 1.37461 0.75405 1.0643 1.06436C0.753989 1.37466 0.530891 1.76105 0.417411 2.18471C-8.51495e-08 3.74522 0 7 0 7C0 7 -8.51495e-08 10.2548 0.417411 11.8131C0.647321 12.6736 1.32589 13.3513 2.18527 13.5809C3.74554 14 10 14 10 14C10 14 16.2545 14 17.8147 13.5809C18.6763 13.3513 19.3527 12.6736 19.5826 11.8131C20 10.2548 20 7 20 7C20 7 20 3.74522 19.5826 2.18694ZM8.01339 9.98726V4.01274L13.192 6.97771L8.01339 9.98726Z" fill="#62A7BD"/>
</svg>

<svg xmlns="http://www.w3.org/2000/svg" width="20" height="14" fill="none" xmlns:v="https://vecta.io/nano"><path d="M19.583 2.187c-.114-.423-.337-.81-.647-1.12a2.51 2.51 0 0 0-1.121-.648C16.255 0 10 0 10 0S3.746 0 2.185.417c-.424.114-.811.337-1.121.647a2.5 2.5 0 0 0-.647 1.12C0 3.745 0 7 0 7s0 3.255.417 4.813c.23.861.908 1.538 1.768 1.768C3.746 14 10 14 10 14s6.255 0 7.815-.419a2.5 2.5 0 0 0 1.768-1.768C20 10.255 20 7 20 7s0-3.255-.417-4.813zm-11.569 7.8V4.013l5.179 2.965-5.179 3.01z" fill="#62a7bd"/></svg>
